X: 1
T:The Braemar Gathering  "http://freespace.virgin.net/michael.clarke2/in
M:6/8
L:1/8
Q:80
C:P/M G.S. McLennan - Gordon Highlanders
S:March
K:HP
e|:
{g}A2{GdGe}A{g}A3/2B/2{GdG}c|
{g}A3/2{d}c/2e{g}f3/2e/2c|
{g}B2{GdGe}B{g}B3/2{d}c/2{e}A|  !
{g}B3/2{d}c/2e{g}f3/2g/2a| |
{g}A2{GdGe}A{g}A3/2B/2{GdG}c|
{g}A3/2{d}c/2e{g}f3/2e/2c|  !
{g}f/2a3/2f{g}e3/2B/2{d}c|
{g}A2{GdGe}A{gAGAG}A2:|
e|:  !
{g}f2{GdG}f{g}f3/2g/2a|
f2{GdG}f{g}f2c|
e2{GdG}e{g}f3/2g/2a|  !
e2{GdG}e{gef}e2B| |
{g}c2{GdGe}c{gcd}c3/2B/2{G}A|
{g}A2{GdGe}A{g}B3/2{d}c/2e|  !
{g}f/2a3/2f{g}e3/2B/2{d}c|
{g}A2{GdGe}A{gAGAG}A2:|
e|:  !
{g}A2{GdGe}A{gcd}c3/2B/2{G}A|
{d}c/2e3/2{g}A{gcd}c3/2B/2{G}A|
{g}B2{GdGe}B{g}B3/2{d}c/2e|  !
{g}f3/2g/2a{fg}f3/2e/2c| |
{g}A2{GdGe}A{gcd}c3/2B/2{G}A|
{d}c/2e3/2{g}A{g}c2{GdG}e|  !
{g}f/2a3/2f{g}e3/2B/2{d}c|
{g}A2{GdGe}A{gAGAG}A2:|
{gf}g|:  !
a3/2f/2{e}f{g}f3/2e/2f|
{g}f/2a3/2f{g}f3/2e/2c|
{g}f3/2e/2{A}e{g}e3/2c/2e|  !
{g}f3/2e/2c{gef}e3/2c/2B| |
{gcd}c3/2B/2{G}A{g}A2{GdGe}A|
{g}B3/2{d}c/2e{g}f2e|  !
{g}f/2a3/2f{g}e3/2B/2{d}c|
{g}A2{GdGe}A{gAGAG}A2:|
